;FLAVOR:Marlin
;TIME:4071
;Filament used: 2.72273m
;Layer height: 0.2
;MINX:110.933
;MINY:79.433
;MINZ:0.2
;MAXX:209.067
;MAXY:140.567
;MAXZ:10.4
;TARGET_MACHINE.NAME:Unknown
;Generated with Cura_SteamEngine 5.5.0
M140 S50
M105
M190 S50
M104 S200
M105
M109 S200
M82 ;absolute extrusion mode
G28 ;Home
G1 Z15.0 F6000 ;Move the platform down 15mm
;Prime the extruder
G92 E0
G1 F200 E3
G92 E0
G92 E0
G92 E0
G1 F3600 E-5
;LAYER_COUNT:52
;LAYER:0
M107 P1
G0 F3000 X112.085 Y81.294 Z0.2
;TYPE:SKIRT
G1 F3600 E0
G1 F1200 X112.792 Y80.587 E0.03326
G1 X113.616 Y80.037 E0.06621
G1 X114.501 Y79.671 E0.09806
G1 X115.168 Y79.527 E0.12075
G1 X115.945 Y79.445 E0.14674
G1 X116.698 Y79.433 E0.17179
G1 X203.339 Y79.433 E3.05348
G1 X204.026 Y79.443 E3.07633
G1 X204.627 Y79.493 E3.09639
G1 X205.401 Y79.64 E3.12259
G1 X206.371 Y80.029 E3.15735
G1 X207.202 Y80.582 E3.19055
G1 X207.905 Y81.284 E3.2236
G1 X208.458 Y82.105 E3.25652
G1 X208.827 Y82.994 E3.28854
G1 X208.973 Y83.665 E3.31137
G1 X209.055 Y84.442 E3.33736
G1 X209.067 Y85.198 E3.36251
G1 X209.067 Y134.839 E5.01358
G1 X209.057 Y135.526 E5.03643
G1 X209.007 Y136.127 E5.05649
G1 X208.86 Y136.902 E5.08272
G1 X208.473 Y137.865 E5.11724
G1 X207.919 Y138.7 E5.15057
G1 X207.215 Y139.406 E5.18373
G1 X206.389 Y139.959 E5.21679
G1 X205.509 Y140.325 E5.24849
G1 X204.832 Y140.473 E5.27154
G1 X204.055 Y140.555 E5.29753
G1 X203.302 Y140.567 E5.32258
G1 X116.661 Y140.567 E8.20427
G1 X115.974 Y140.557 E8.22712
G1 X115.373 Y140.507 E8.24718
G1 X114.599 Y140.36 E8.27338
G1 X113.629 Y139.971 E8.30814
G1 X112.798 Y139.418 E8.34134
G1 X112.094 Y138.715 E8.37443
G1 X111.541 Y137.889 E8.40749
G1 X111.173 Y137.005 E8.43934
G1 X111.026 Y136.327 E8.46242
G1 X110.945 Y135.558 E8.48813
G1 X110.933 Y134.802 E8.51328
G1 X110.933 Y85.161 E10.16435
G1 X110.943 Y84.474 E10.1872
G1 X110.993 Y83.873 E10.20726
G1 X111.142 Y83.096 E10.23357
G1 X111.526 Y82.136 E10.26796
G1 X112.085 Y81.294 E10.30158
G1 F3600 E5.30158
;MESH:esplcd1.stl
G0 F3000 X122.55 Y135.5
;TYPE:WALL-INNER
G1 F3600 E10.30158
G1 F1200 X122.55 Y84.5 E11.99784
G1 X122.694 Y84.066 E12.01305
G1 X116.104 Y84.066 E12.23224
G1 X115.801 Y84.131 E12.24254
G1 X115.631 Y84.301 E12.25054
G1 X115.566 Y84.604 E12.26085
G1 X115.566 Y135.396 E13.9502
G1 X115.631 Y135.699 E13.9605
G1 X115.801 Y135.869 E13.9685
G1 X116.104 Y135.934 E13.97881
G1 X122.694 Y135.934 E14.19799
G1 X122.55 Y135.5 E14.2132
G0 F3000 X122.95 Y135.5
G1 F1200 X122.95 Y84.5 E15.90947
G1 X123.069 Y84.139 E15.92211
G1 F919.5 X123.426 Y83.788 E15.94384
G1 X122.833 Y83.666 E15.97012
G1 F1200 X116.062 Y83.666 E16.19532
G1 X115.663 Y83.751 E16.20889
G1 X115.418 Y83.918 E16.21875
G1 X115.251 Y84.163 E16.22861
G1 X115.166 Y84.562 E16.24218
G1 X115.166 Y135.437 E17.93429
G1 X115.251 Y135.837 E17.94789
G1 X115.418 Y136.082 E17.95775
G1 X115.663 Y136.249 E17.96762
G1 X116.062 Y136.334 E17.98118
G1 X122.833 Y136.334 E18.20639
G1 F928.4 X123.55 Y136.217 E18.23762
G1 X123.069 Y135.861 E18.26334
G1 F1200 X122.95 Y135.5 E18.27599
G1 F3600 E13.27599
G0 F3000 X199.806 Y99.695
;TYPE:WALL-OUTER
G1 F3600 E18.27599
G1 F1200 X199.279 Y99.628 E18.29366
G1 X198.446 Y99.357 E18.32279
G1 X197.839 Y99.003 E18.34616
G1 X197.334 Y98.566 E18.36837
G1 X196.975 Y98.128 E18.38721
G1 X196.574 Y97.396 E18.41497
G1 X196.367 Y96.702 E18.43906
G1 X196.301 Y95.981 E18.46314
G1 X196.373 Y95.276 E18.48671
G1 X196.643 Y94.446 E18.51574
G1 X196.997 Y93.839 E18.53911
G1 X197.434 Y93.334 E18.56132
G1 X197.872 Y92.975 E18.58016
G1 X198.644 Y92.558 E18.60934
G1 X199.313 Y92.365 E18.6325
G1 X200.019 Y92.301 E18.65608
G1 X200.724 Y92.373 E18.67965
G1 X201.554 Y92.643 E18.70868
G1 X202.161 Y92.997 E18.73205
G1 X202.666 Y93.434 E18.75426
G1 X203.025 Y93.872 E18.7731
G1 X203.443 Y94.644 E18.8023
G1 X203.635 Y95.313 E18.82545
G1 X203.7 Y96 E18.8484
G1 X203.634 Y96.698 E18.87172
G1 X203.362 Y97.547 E18.90137
G1 X203.194 Y97.869 E18.91345
G1 X202.809 Y98.409 E18.93551
G1 X202.277 Y98.916 E18.95995
G1 X201.833 Y99.213 E18.97772
G1 X201.198 Y99.5 E19.00089
G1 X200.677 Y99.638 E19.01882
G1 X199.806 Y99.695 E19.04785
G0 F3000 X199.608 Y99.67
G1 F3600 E14.04785
G0 F3000 X203.98 Y136.733
G1 F3600 E19.04785
G1 F1200 X204.475 Y136.629 E19.06467
G1 X204.866 Y136.366 E19.08035
G1 X205.129 Y135.975 E19.09602
G1 X205.233 Y135.479 E19.11288
G1 X205.234 Y84.52 E20.80778
G1 X205.129 Y84.025 E20.82461
G1 X204.866 Y83.634 E20.84028
G1 X204.475 Y83.371 E20.85596
G1 X203.98 Y83.266 E20.87279
G1 X116.02 Y83.266 E23.79835
G1 X115.525 Y83.371 E23.81518
G1 X115.134 Y83.634 E23.83085
G1 X114.871 Y84.025 E23.84652
G1 X114.766 Y84.52 E23.86335
G1 X114.766 Y135.479 E25.55826
G1 X114.871 Y135.975 E25.57512
G1 X115.134 Y136.366 E25.59079
G1 X115.525 Y136.629 E25.60646
G1 X116.02 Y136.734 E25.62329
G1 X203.98 Y136.733 E28.54886
G0 F3000 X204.176 Y136.692
G1 F3600 E23.54886
G0 F3000 X195.035 Y135.698
G1 F3600 E28.54886
G1 F1200 X123.55 Y135.7 E30.92646
G1 X123.389 Y135.621 E30.93242
G1 X123.35 Y135.5 E30.93665
G1 X123.35 Y84.5 E32.63292
G1 X123.389 Y84.379 E32.63714
G1 X123.515 Y84.302 E32.64206
G1 X195 Y84.3 E35.01966
G1 X195.161 Y84.379 E35.02562
G1 X195.2 Y84.5 E35.02985
G1 X195.2 Y135.5 E36.72612
G1 X195.161 Y135.621 E36.73035
G1 X195.035 Y135.698 E36.73526
G0 F3000 X194.835 Y135.698
G1 F3600 E31.73526
G0 F3000 X199.872 Y100.095
;TYPE:WALL-INNER
G1 F3600 E36.73526
G1 F1200 X199.215 Y100.028 E36.75722
G1 X198.298 Y99.734 E36.78925
G1 X197.62 Y99.342 E36.8153
G1 X197.03 Y98.832 E36.84124
G1 X196.651 Y98.369 E36.86114
G1 X196.191 Y97.53 E36.89296
G1 F1218.3 X195.979 Y96.77 E36.91881
G1 F1297.3 X195.927 Y95.945 E36.94424
G1 F1329.6 X195.98 Y95.215 E36.96621
G1 F1246.8 X196.262 Y94.306 E36.99668
G1 F1200 X196.655 Y93.624 E37.02286
G1 X197.168 Y93.03 E37.04897
G1 X197.631 Y92.651 E37.06887
G1 X198.466 Y92.193 E37.10054
G1 X199.222 Y91.972 E37.12674
G1 X199.999 Y91.898 E37.1527
G1 X200.783 Y91.972 E37.17889
G1 X201.697 Y92.264 E37.21081
G1 X202.38 Y92.658 E37.23703
G1 X202.966 Y93.165 E37.2628
G1 X203.351 Y93.634 E37.28299
G1 X203.81 Y94.475 E37.31485
G1 X204.028 Y95.223 E37.34077
G1 X204.1 Y96 E37.36672
G1 X204.028 Y96.767 E37.39234
G1 X203.74 Y97.69 E37.4245
G1 X203.52 Y98.101 E37.44001
G1 X203.103 Y98.686 E37.4639
G1 X202.542 Y99.22 E37.48966
G1 X202.045 Y99.556 E37.50961
G1 X201.395 Y99.853 E37.53338
G1 X200.766 Y100.033 E37.55514
G1 X199.872 Y100.095 E37.58495
G1 F3600 E32.58495
G0 F3000 X195.6 Y84.5
G1 F3600 E37.58495
G1 F1200 X195.601 Y94.262 E37.90964
G1 F1280 X195.575 Y96 E37.96383
G1 F1293.8 X195.596 Y96.891 E37.99133
G1 F1221.4 X195.598 Y116.196 E38.62218
G1 F1209.1 X195.6 Y135.501 E39.25945
G1 F1200 X195.481 Y135.861 E39.27206
G1 F919.5 X195.124 Y136.212 E39.29379
G1 X195.717 Y136.334 E39.32007
G1 F1200 X203.938 Y136.333 E39.5935
G1 X204.337 Y136.249 E39.60706
G1 X204.582 Y136.082 E39.61692
G1 X204.749 Y135.837 E39.62679
G1 X204.833 Y135.437 E39.64038
G1 X204.834 Y84.562 E41.33249
G1 X204.749 Y84.163 E41.34606
G1 X204.582 Y83.918 E41.35592
G1 X204.337 Y83.751 E41.36578
G1 X203.938 Y83.666 E41.37935
G1 X195.717 Y83.666 E41.65278
G1 F928.4 X195 Y83.783 E41.68401
G1 X195.481 Y84.139 E41.70974
G1 F1200 X195.6 Y84.5 E41.72238
G1 F3600 E36.72238
G0 F3000 X204.182 Y94.32
G1 F3600 E41.72238
G1 F1197 X204.432 Y95.174 E41.75205
G1 X204.434 Y84.604 E42.10449
G1 F1200 X204.369 Y84.301 E42.1148
G1 X204.199 Y84.131 E42.12279
G1 X203.896 Y84.066 E42.1331
G1 X195.856 Y84.066 E42.40051
G1 X196 Y84.5 E42.41572
G1 X196.001 Y93.959 E42.73033
G1 X196.326 Y93.391 E42.75209
G1 X196.829 Y92.81 E42.77765
G1 X197.397 Y92.323 E42.80254
G1 X198.313 Y91.821 E42.83728
G1 X199.145 Y91.578 E42.86611
G1 X200.002 Y91.496 E42.89474
G1 X200.866 Y91.578 E42.92361
G1 X201.862 Y91.897 E42.95839
G1 X202.614 Y92.33 E42.98725
G1 X203.19 Y92.829 E43.0126
G1 X203.681 Y93.405 E43.03777
G1 X204.182 Y94.32 E43.07247
G1 F3600 E38.07247
G0 F3000 X199.9 Y100.494
G1 F3600 E43.07247
G1 F1200 X199.14 Y100.424 E43.09786
G1 X198.138 Y100.103 E43.13285
G1 X197.386 Y99.67 E43.16171
G1 X196.81 Y99.171 E43.18706
G1 X196.326 Y98.606 E43.2118
G1 X196 Y98.013 E43.23431
G1 X196 Y135.5 E44.48113
G1 X195.856 Y135.934 E44.49634
G1 X203.896 Y135.933 E44.76375
G1 X204.199 Y135.869 E44.77405
G1 X204.369 Y135.699 E44.78205
G1 X204.433 Y135.396 E44.79235
G1 F1194 X204.432 Y122.543 E45.22198
G1 F1182.3 X204.43 Y109.69 E45.65589
G1 F1170.7 X204.429 Y96.837 E46.09407
G1 F1182.3 X204.138 Y97.758 E46.12667
G1 F1200 X203.893 Y98.266 E46.14543
G1 X203.402 Y98.954 E46.17354
G1 X202.796 Y99.531 E46.20137
G1 X202.239 Y99.907 E46.22373
G1 X201.561 Y100.217 E46.24852
G1 X200.838 Y100.429 E46.27358
G1 X199.9 Y100.494 E46.30485
G1 F3600 E41.30485
G0 F3000 X204.428 Y96.836
G1 F3600 E46.30485
G1 F1286.9 X204.467 Y96 E46.33081
G1 F1300.8 X204.432 Y95.237 E46.35425
G1 F3600 E41.35425
G0 F3000 X195 Y83.783
G1 F3600 E46.35425
G1 F755.9 X177.106 Y83.784 E47.29906
G1 F753.5 X159.212 Y83.785 E48.24685
G1 F750 X141.318 Y83.786 E49.1991
G1 F747.7 X123.424 Y83.788 E50.15432
G1 F3600 E45.15432
G0 F3000 X123.55 Y136.217
G1 F3600 E50.15432
G1 F755.9 X141.444 Y136.216 E51.09913
G1 F753.5 X159.338 Y136.215 E52.04692
G1 F750 X177.232 Y136.214 E52.99917
G1 F747.7 X195.126 Y136.212 E53.9544
G1 F3600 E48.9544
G0 F3000 X199.899 Y100.872
;TYPE:SKIN
G1 F3600 E53.9544
G1 F1200 X200.885 Y100.808 E53.98726
G1 X201.696 Y100.572 E54.01536
G1 X202.411 Y100.246 E54.04149
G1 X203.021 Y99.839 E54.06588
G1 X203.703 Y99.191 E54.09717
G1 X204.053 Y98.696 E54.11734
G1 X204.053 Y135.356 E55.33665
G1 X204.017 Y135.517 E55.34214
G1 X203.856 Y135.553 E55.34763
G1 X196.381 Y135.553 E55.59625
G1 X196.382 Y99.301 E56.80199
G1 X197.149 Y99.968 E56.8358
G1 X197.963 Y100.441 E56.86711
G1 X199.041 Y100.791 E56.90481
G1 X199.899 Y100.872 E56.93347
G1 F3600 E51.93347
G0 F3000 X203.624 Y99.538
G1 F3600 E56.93347
G1 F1200 X203.852 Y99.766 E56.9442
G0 F3000 X203.334 Y99.813
G1 F1200 X203.852 Y100.332 E56.96859
G0 F3000 X203.852 Y100.897
G1 F1200 X203.028 Y100.073 E57.00734
G0 F3000 X202.688 Y100.299
G1 F1200 X203.852 Y101.463 E57.0621
G0 F3000 X203.852 Y102.029
G1 F1200 X202.327 Y100.503 E57.13385
G0 F3000 X201.937 Y100.679
G1 F1200 X203.852 Y102.594 E57.22393
G0 F3000 X203.852 Y103.16
G1 F1200 X201.524 Y100.832 E57.33343
G0 F3000 X201.087 Y100.961
G1 F1200 X203.852 Y103.726 E57.46349
G0 F3000 X203.852 Y104.291
G1 F1200 X200.587 Y101.027 E57.61704
G0 F3000 X200.055 Y101.06
G1 F1200 X203.852 Y104.857 E57.79564
G0 F3000 X203.851 Y105.422
G1 F1200 X199.463 Y101.034 E58.00203
G0 F3000 X198.782 Y100.918
G1 F1200 X203.851 Y105.988 E58.24049
G0 F3000 X203.851 Y106.553
G1 F1200 X197.949 Y100.651 E58.5181
G1 X197.879 Y100.581
G1 F3600 E53.5181
G0 F3000 X196.579 Y100.413
G1 F3600 E58.5181
G1 F1200 X203.851 Y107.685 E58.86015
G0 F3000 X203.851 Y108.25
G1 F1200 X196.579 Y100.979 E59.20218
G0 F3000 X196.579 Y101.544
G1 F1200 X203.851 Y108.816 E59.54423
G0 F3000 X203.851 Y109.382
G1 F1200 X196.579 Y102.11 E59.88629
G0 F3000 X196.579 Y102.676
G1 F1200 X203.851 Y109.948 E60.22834
G0 F3000 X203.851 Y110.513
G1 F1200 X196.579 Y103.241 E60.57039
G0 F3000 X196.579 Y103.807
G1 F1200 X203.851 Y111.079 E60.91244
G0 F3000 X203.851 Y111.644
G1 F1200 X196.579 Y104.373 E61.25447
G0 F3000 X196.579 Y104.938
G1 F1200 X203.851 Y112.21 E61.59653
G0 F3000 X203.851 Y112.775
G1 F1200 X196.579 Y105.504 E61.93856
G0 F3000 X196.579 Y106.07
G1 F1200 X203.851 Y113.341 E62.28058
G0 F3000 X203.851 Y113.907
G1 F1200 X196.579 Y106.635 E62.62264
G0 F3000 X196.579 Y107.201
G1 F1200 X203.851 Y114.472 E62.96467
G0 F3000 X203.851 Y115.038
G1 F1200 X196.579 Y107.767 E63.3067
G0 F3000 X196.579 Y108.333
G1 F1200 X203.851 Y115.604 E63.64872
G0 F3000 X203.851 Y116.169
G1 F1200 X196.579 Y108.898 E63.99075
G0 F3000 X196.579 Y109.464
G1 F1200 X203.851 Y116.735 E64.33278
G0 F3000 X203.851 Y117.301
G1 F1200 X196.579 Y110.03 E64.67481
G0 F3000 X196.579 Y110.595
G1 F1200 X203.85 Y117.866 E65.01682
G0 F3000 X203.85 Y118.431
G1 F1200 X196.579 Y111.161 E65.3588
G0 F3000 X196.579 Y111.727
G1 F1200 X203.85 Y118.997 E65.70078
G0 F3000 X203.85 Y119.563
G1 F1200 X196.579 Y112.292 E66.04279
G0 F3000 X196.579 Y112.858
G1 F1200 X203.85 Y120.128 E66.38477
G0 F3000 X203.85 Y120.694
G1 F1200 X196.579 Y113.424 E66.72675
G0 F3000 X196.579 Y113.989
G1 F1200 X203.85 Y121.26 E67.06876
G0 F3000 X203.85 Y121.826
G1 F1200 X196.579 Y114.555 E67.41076
G0 F3000 X196.579 Y115.121
G1 F1200 X203.85 Y122.391 E67.75274
G0 F3000 X203.85 Y122.957
G1 F1200 X196.579 Y115.686 E68.09475
G0 F3000 X196.579 Y116.252
G1 F1200 X203.849 Y123.522 E68.43671
G0 F3000 X203.849 Y124.088
G1 F1200 X196.579 Y116.818 E68.77867
G0 F3000 X196.579 Y117.383
G1 F1200 X203.849 Y124.653 E69.12063
G0 F3000 X203.849 Y125.219
G1 F1200 X196.579 Y117.949 E69.46258
G0 F3000 X196.579 Y118.515
G1 F1200 X203.849 Y125.785 E69.80454
G0 F3000 X203.849 Y126.35
G1 F1200 X196.579 Y119.081 E70.14648
G0 F3000 X196.579 Y119.646
G1 F1200 X203.849 Y126.916 E70.48844
G0 F3000 X203.849 Y127.482
G1 F1200 X196.579 Y120.212 E70.83039
G0 F3000 X196.579 Y120.778
G1 F1200 X203.849 Y128.047 E71.17233
G0 F3000 X203.849 Y128.613
G1 F1200 X196.579 Y121.343 E71.51429
G0 F3000 X196.579 Y121.909
G1 F1200 X203.849 Y129.179 E71.85625
G0 F3000 X203.848 Y129.744
G1 F1200 X196.579 Y122.475 E72.19816
G0 F3000 X196.579 Y123.04
G1 F1200 X203.848 Y130.309 E72.54007
G0 F3000 X203.848 Y130.875
G1 F1200 X196.579 Y123.606 E72.88198
G0 F3000 X196.579 Y124.172
G1 F1200 X203.848 Y131.441 E73.22389
G0 F3000 X203.848 Y132.006
G1 F1200 X196.579 Y124.737 E73.5658
G0 F3000 X196.579 Y125.303
G1 F1200 X203.848 Y132.572 E73.90772
G0 F3000 X203.848 Y133.138
G1 F1200 X196.579 Y125.869 E74.24963
G0 F3000 X196.579 Y126.434
G1 F1200 X203.848 Y133.703 E74.59154
G0 F3000 X203.848 Y134.269
G1 F1200 X196.579 Y127 E74.93345
G0 F3000 X196.579 Y127.566
G1 F1200 X203.848 Y134.835 E75.27536
G0 F3000 X203.797 Y135.349
G1 F1200 X196.579 Y128.131 E75.61487
G0 F3000 X196.579 Y128.697
G1 F1200 X203.231 Y135.349 E75.92776
G0 F3000 X202.665 Y135.349
G1 F1200 X196.579 Y129.263 E76.21403
G0 F3000 X196.579 Y129.829
G1 F1200 X202.101 Y135.35 E76.47374
G0 F3000 X201.535 Y135.35
G1 F1200 X196.579 Y130.394 E76.70686
G0 F3000 X196.579 Y130.96
G1 F1200 X200.969 Y135.35 E76.91335
G0 F3000 X200.404 Y135.35
G1 F1200 X196.579 Y131.526 E77.09324
G0 F3000 X196.579 Y132.091
G1 F1200 X199.838 Y135.35 E77.24654
G0 F3000 X199.274 Y135.351
G1 F1200 X196.579 Y132.657 E77.37328
G0 F3000 X196.579 Y133.223
G1 F1200 X198.708 Y135.351 E77.4734
G0 F3000 X198.142 Y135.351
G1 F1200 X196.579 Y133.788 E77.54692
G0 F3000 X196.579 Y134.354
G1 F1200 X197.577 Y135.352 E77.59386
G0 F3000 X197.011 Y135.352
G1 F1200 X196.579 Y134.92 E77.61418
G1 F3600 E72.61418
G0 F3000 X203.851 Y107.119
G1 F3600 E77.61418
G1 F1200 X196.579 Y99.847 E77.95623
G1 X196.509 Y99.777
G1 F3600 E72.95623
G0 F3000 X202.845 Y92.028
G1 F3600 E77.95623
G1 F1200 X201.999 Y91.543 E77.98867
G1 X200.964 Y91.211 E78.02482
G1 X200.025 Y91.117 E78.0562
G1 X199.085 Y91.203 E78.0876
G1 X198.194 Y91.458 E78.11842
G1 X197.192 Y92.002 E78.15635
G1 X196.539 Y92.562 E78.18496
G1 X196.381 Y92.746 E78.19302
G1 X196.38 Y84.447 E78.46905
G1 X203.855 Y84.446 E78.71767
G1 X204.018 Y84.482 E78.72322
G1 X204.054 Y84.645 E78.72877
G1 X204.054 Y93.252 E79.01504
G1 X203.458 Y92.56 E79.04542
G1 X202.845 Y92.028 E79.07241
G1 F3600 E74.07241
G0 F3000 X196.757 Y92.105
G1 F3600 E79.07241
G1 F1200 X196.579 Y91.928 E79.08076
G0 F3000 X197.062 Y91.844
G1 F1200 X196.579 Y91.362 E79.10346
G0 F3000 X196.579 Y90.796
G1 F1200 X197.427 Y91.644 E79.14335
G0 F3000 X197.792 Y91.443
G1 F1200 X196.579 Y90.231 E79.20038
G0 F3000 X196.579 Y89.665
G1 F1200 X198.17 Y91.255 E79.27519
G0 F3000 X198.608 Y91.128
G1 F1200 X196.579 Y89.099 E79.37063
G0 F3000 X196.579 Y88.534
G1 F1200 X199.05 Y91.004 E79.48683
G0 F3000 X199.567 Y90.955
G1 F1200 X196.579 Y87.968 E79.62736
G0 F3000 X196.579 Y87.402
G1 F1200 X200.1 Y90.923 E79.79297
G0 F3000 X200.724 Y90.982
G1 F1200 X196.579 Y86.836 E79.98797
G0 F3000 X196.579 Y86.271
G1 F1200 X201.473 Y91.165 E80.21816
G1 X201.543 Y91.235
G1 F3600 E75.21816
G0 F3000 X202.429 Y91.554
G1 F3600 E80.21816
G1 F1200 X196.579 Y85.705 E80.49331
G0 F3000 X196.579 Y85.139
