;FLAVOR:Marlin
;TIME:8850
;Filament used: 2.68526m
;Layer height: 0.1
;MINX:111.041
;MINY:79.541
;MINZ:0.2
;MAXX:208.959
;MAXY:140.459
;MAXZ:10.5
;TARGET_MACHINE.NAME:Unknown
;Generated with Cura_SteamEngine 5.5.0
M140 S50
M105
M190 S50
M104 S200
M105
M109 S200
M82 ;absolute extrusion mode
G28 ;Home
G1 Z15.0 F6000 ;Move the platform down 15mm
;Prime the extruder
G92 E0
G1 F200 E3
G92 E0
G92 E0
G92 E0
G1 F3600 E-5
;LAYER_COUNT:104
;LAYER:0
M107 P1
G0 F3000 X112.184 Y81.344 Z0.2
;TYPE:SKIRT
G1 F3600 E0
G1 F600 X112.864 Y80.666 E0.03194
G1 X113.671 Y80.13 E0.06416
G1 X114.5 Y79.785 E0.09403
G1 X115.17 Y79.637 E0.11685
G1 X115.982 Y79.551 E0.144
G1 X116.683 Y79.541 E0.16732
G1 X203.293 Y79.541 E3.04798
G1 X204.161 Y79.559 E3.07686
G1 X204.747 Y79.615 E3.09644
G1 X205.472 Y79.774 E3.12112
G1 X206.322 Y80.129 E3.15176
G1 X207.13 Y80.663 E3.18398
G1 X207.839 Y81.371 E3.2173
G1 X208.369 Y82.173 E3.24927
G1 X208.713 Y82.995 E3.27891
G1 X208.863 Y83.667 E3.30181
G1 X208.949 Y84.48 E3.329
G1 X208.959 Y85.184 E3.35242
G1 X208.958 Y134.861 E5.00468
G1 X208.941 Y135.661 E5.0313
G1 X208.885 Y136.248 E5.05091
G1 X208.727 Y136.969 E5.07546
G1 X208.37 Y137.827 E5.10637
G1 X207.828 Y138.641 E5.1389
G1 X207.138 Y139.333 E5.1714
G1 X206.321 Y139.873 E5.20397
G1 X205.503 Y140.214 E5.23345
G1 X204.83 Y140.363 E5.25637
G1 X204.018 Y140.449 E5.28353
G1 X203.317 Y140.459 E5.30685
G1 X116.639 Y140.458 E8.18977
G1 X115.839 Y140.441 E8.21639
G1 X115.253 Y140.385 E8.23597
G1 X114.527 Y140.227 E8.26068
G1 X113.667 Y139.866 E8.2917
G1 X112.862 Y139.33 E8.32387
G1 X112.163 Y138.63 E8.35677
G1 X111.631 Y137.828 E8.38878
G1 X111.285 Y137 E8.41862
G1 X111.137 Y136.333 E8.44135
G1 X111.051 Y135.52 E8.46854
G1 X111.041 Y134.816 E8.49196
G1 X111.042 Y85.125 E10.14469
G1 X111.059 Y84.338 E10.17087
G1 X111.115 Y83.752 E10.19045
G1 X111.273 Y83.031 E10.215
G1 X111.634 Y82.164 E10.24623
G1 X112.184 Y81.344 E10.27907
G1 F3600 E5.27907
;MESH:esplcd1.stl
G0 F3000 X120.55 Y135.5
;TYPE:WALL-INNER
G1 F3600 E10.27907
G1 F600 X120.55 Y84.5 E11.97534
G1 X120.694 Y84.066 E11.99055
G1 X116.104 Y84.066 E12.14321
G1 X115.801 Y84.131 E12.15352
G1 X115.631 Y84.301 E12.16152
G1 X115.566 Y84.604 E12.17182
G1 X115.566 Y135.396 E13.86117
G1 X115.631 Y135.699 E13.87148
G1 X115.801 Y135.869 E13.87948
G1 X116.104 Y135.934 E13.88978
G1 X120.694 Y135.934 E14.04245
G1 X120.55 Y135.5 E14.05766
G0 F3000 X120.95 Y135.5
G1 F600 X120.95 Y84.5 E15.75392
G1 X121.069 Y84.139 E15.76657
G1 F459.8 X121.426 Y83.788 E15.7883
G1 X120.833 Y83.666 E15.81457
G1 F600 X116.062 Y83.666 E15.97326
G1 X115.663 Y83.751 E15.98683
G1 X115.418 Y83.918 E15.99669
G1 X115.251 Y84.163 E16.00655
G1 X115.166 Y84.562 E16.02012
G1 X115.166 Y135.437 E17.71223
G1 X115.251 Y135.837 E17.72583
G1 X115.418 Y136.082 E17.73569
G1 X115.663 Y136.249 E17.74555
G1 X116.062 Y136.334 E17.75912
G1 X120.833 Y136.334 E17.91781
G1 F464.2 X121.55 Y136.217 E17.94904
G1 X121.069 Y135.861 E17.97476
G1 F600 X120.95 Y135.5 E17.9874
G1 F3600 E12.9874
G0 F3000 X195.035 Y135.698
;TYPE:WALL-OUTER
G1 F3600 E17.9874
G1 F600 X121.55 Y135.7 E20.43152
G1 X121.389 Y135.621 E20.43749
G1 X121.35 Y135.5 E20.44172
G1 X121.35 Y84.5 E22.13798
G1 X121.389 Y84.379 E22.14221
G1 X121.515 Y84.302 E22.14712
G1 X195 Y84.3 E24.59124
G1 X195.161 Y84.379 E24.59721
G1 X195.2 Y84.5 E24.60144
G1 X195.2 Y135.5 E26.29771
G1 X195.161 Y135.621 E26.30193
G1 X195.035 Y135.698 E26.30684
G0 F3000 X194.835 Y135.698
G1 F3600 E21.30684
G0 F3000 X203.98 Y136.733
G1 F3600 E26.30684
G1 F600 X204.475 Y136.629 E26.32367
G1 X204.866 Y136.366 E26.33934
G1 X205.129 Y135.975 E26.35501
G1 X205.233 Y135.479 E26.37187
G1 X205.234 Y84.52 E28.06677
G1 X205.129 Y84.025 E28.0836
G1 X204.866 Y83.634 E28.09928
G1 X204.475 Y83.371 E28.11495
G1 X203.98 Y83.266 E28.13178
G1 X116.02 Y83.266 E31.05734
G1 X115.525 Y83.371 E31.07417
G1 X115.134 Y83.634 E31.08984
G1 X114.871 Y84.025 E31.10552
G1 X114.766 Y84.52 E31.12235
G1 X114.766 Y135.479 E32.81725
G1 X114.871 Y135.975 E32.83411
G1 X115.134 Y136.366 E32.84978
G1 X115.525 Y136.629 E32.86546
G1 X116.02 Y136.734 E32.88229
G1 X203.98 Y136.733 E35.80785
G0 F3000 X204.176 Y136.692
G1 F3600 E30.80785
G0 F3000 X195.6 Y84.5
;TYPE:WALL-INNER
G1 F3600 E35.80785
G1 F600 X195.6 Y135.5 E37.50412
G1 X195.481 Y135.861 E37.51676
G1 F459.8 X195.124 Y136.212 E37.53849
G1 X195.717 Y136.334 E37.56477
G1 F600 X203.938 Y136.333 E37.8382
G1 X204.337 Y136.249 E37.85176
G1 X204.582 Y136.082 E37.86162
G1 X204.749 Y135.837 E37.87148
G1 X204.833 Y135.437 E37.88508
G1 X204.834 Y84.562 E39.57719
G1 X204.749 Y84.163 E39.59076
G1 X204.582 Y83.918 E39.60062
G1 X204.337 Y83.751 E39.61048
G1 X203.938 Y83.666 E39.62405
G1 X195.717 Y83.666 E39.89748
G1 F464.2 X195 Y83.783 E39.92871
G1 X195.481 Y84.139 E39.95444
G1 F600 X195.6 Y84.5 E39.96708
G1 F3600 E34.96708
G0 F3000 X196 Y135.5
G1 F3600 E39.96708
G1 F600 X195.856 Y135.934 E39.98229
G1 X203.896 Y135.933 E40.2497
G1 X204.199 Y135.869 E40.26
G1 X204.369 Y135.699 E40.26799
G1 X204.433 Y135.396 E40.27829
G1 X204.434 Y84.604 E41.96764
G1 X204.369 Y84.301 E41.97795
G1 X204.199 Y84.131 E41.98595
G1 X203.896 Y84.066 E41.99625
G1 X195.856 Y84.066 E42.26367
G1 X196 Y84.5 E42.27887
G1 X196 Y135.5 E43.97514
G1 F3600 E38.97514
G0 F3000 X195.124 Y136.212
G1 F3600 E43.97514
G1 F373.8 X176.73 Y136.213 E44.95706
G1 F375 X158.336 Y136.214 E45.93592
G1 F376.8 X139.942 Y136.215 E46.91019
G1 F378 X121.548 Y136.217 E47.8814
G1 F3600 E42.8814
G0 F3000 X121.426 Y83.788
G1 F3600 E47.8814
G1 F373.8 X139.82 Y83.787 E48.86332
G1 F375 X158.214 Y83.786 E49.84218
G1 F376.8 X176.608 Y83.785 E50.81645
G1 F378 X195.002 Y83.783 E51.78766
G1 F3600 E46.78766
G0 F3000 X203.856 Y135.553
;TYPE:SKIN
G1 F3600 E51.78766
G1 F600 X196.38 Y135.553 E52.03631
G1 X196.38 Y84.447 E53.73611
G1 X203.855 Y84.447 E53.98472
G1 X204.018 Y84.482 E53.99027
G1 X204.053 Y84.645 E53.99581
G1 X204.053 Y135.356 E55.68247
G1 X204.017 Y135.517 E55.68796
G1 X203.856 Y135.553 E55.69344
G1 F3600 E50.69344
G0 F3000 X196.579 Y134.92
G1 F3600 E55.69344
G1 F600 X197.011 Y135.352 E55.71376
G0 F3000 X197.577 Y135.352
G1 F600 X196.579 Y134.354 E55.76071
G0 F3000 X196.579 Y133.788
G1 F600 X198.142 Y135.351 E55.83423
G0 F3000 X198.708 Y135.351
G1 F600 X196.579 Y133.223 E55.93434
G0 F3000 X196.579 Y132.657
G1 F600 X199.274 Y135.351 E56.06108
G0 F3000 X199.838 Y135.35
G1 F600 X196.579 Y132.091 E56.21438
G0 F3000 X196.579 Y131.526
G1 F600 X200.404 Y135.35 E56.39427
G0 F3000 X200.969 Y135.35
G1 F600 X196.579 Y130.96 E56.60076
G0 F3000 X196.579 Y130.394
G1 F600 X201.535 Y135.35 E56.83388
G0 F3000 X202.101 Y135.35
G1 F600 X196.579 Y129.829 E57.09359
G0 F3000 X196.579 Y129.263
G1 F600 X202.665 Y135.349 E57.37986
G0 F3000 X203.231 Y135.349
G1 F600 X196.579 Y128.697 E57.69275
G0 F3000 X196.579 Y128.131
G1 F600 X203.797 Y135.349 E58.03226
G0 F3000 X203.848 Y134.834
G1 F600 X196.579 Y127.566 E58.37415
G0 F3000 X196.579 Y127
G1 F600 X203.848 Y134.268 E58.71604
G0 F3000 X203.848 Y133.703
G1 F600 X196.579 Y126.434 E59.05795
G0 F3000 X196.579 Y125.869
G1 F600 X203.848 Y133.137 E59.39984
G0 F3000 X203.848 Y132.571
G1 F600 X196.579 Y125.303 E59.74172
G0 F3000 X196.579 Y124.737
G1 F600 X203.848 Y132.006 E60.08364
G0 F3000 X203.848 Y131.44
G1 F600 X196.579 Y124.172 E60.42552
G0 F3000 X196.579 Y123.606
G1 F600 X203.848 Y130.874 E60.76741
G0 F3000 X203.848 Y130.309
G1 F600 X196.579 Y123.04 E61.10932
G0 F3000 X196.579 Y122.475
G1 F600 X203.848 Y129.743 E61.45121
G0 F3000 X203.848 Y129.177
G1 F600 X196.579 Y121.909 E61.7931
G0 F3000 X196.579 Y121.343
G1 F600 X203.848 Y128.612 E62.13501
G0 F3000 X203.848 Y128.046
G1 F600 X196.579 Y120.778 E62.4769
G0 F3000 X196.579 Y120.212
G1 F600 X203.848 Y127.48 E62.81879
G0 F3000 X203.848 Y126.915
G1 F600 X196.579 Y119.646 E63.1607
G0 F3000 X196.579 Y119.081
G1 F600 X203.848 Y126.349 E63.50259
G0 F3000 X203.848 Y125.783
G1 F600 X196.579 Y118.515 E63.84447
G0 F3000 X196.579 Y117.949
G1 F600 X203.848 Y125.218 E64.18639
G0 F3000 X203.848 Y124.652
G1 F600 X196.579 Y117.383 E64.5283
G0 F3000 X196.579 Y116.818
G1 F600 X203.848 Y124.086 E64.87018
G0 F3000 X203.848 Y123.52
G1 F600 X196.579 Y116.252 E65.21207
G0 F3000 X196.579 Y115.686
G1 F600 X203.848 Y122.955 E65.55398
G0 F3000 X203.848 Y122.389
G1 F600 X196.579 Y115.121 E65.89587
G0 F3000 X196.579 Y114.555
G1 F600 X203.848 Y121.823 E66.23776
G0 F3000 X203.848 Y121.258
G1 F600 X196.579 Y113.989 E66.57967
G0 F3000 X196.579 Y113.424
G1 F600 X203.848 Y120.692 E66.92156
G0 F3000 X203.848 Y120.126
G1 F600 X196.579 Y112.858 E67.26345
G0 F3000 X196.579 Y112.292
G1 F600 X203.848 Y119.561 E67.60536
G0 F3000 X203.848 Y118.995
G1 F600 X196.579 Y111.727 E67.94725
G0 F3000 X196.579 Y111.161
G1 F600 X203.848 Y118.429 E68.28913
G0 F3000 X203.848 Y117.864
G1 F600 X196.579 Y110.595 E68.63105
G0 F3000 X196.579 Y110.03
G1 F600 X203.848 Y117.298 E68.97293
G0 F3000 X203.848 Y116.732
G1 F600 X196.579 Y109.464 E69.31482
G0 F3000 X196.579 Y108.898
G1 F600 X203.848 Y116.167 E69.65673
G0 F3000 X203.848 Y115.601
G1 F600 X196.579 Y108.333 E69.99862
G0 F3000 X196.579 Y107.767
G1 F600 X203.848 Y115.035 E70.34051
G0 F3000 X203.848 Y114.469
G1 F600 X196.579 Y107.201 E70.6824
G0 F3000 X196.579 Y106.635
G1 F600 X203.848 Y113.904 E71.02431
G0 F3000 X203.848 Y113.338
G1 F600 X196.579 Y106.07 E71.3662
G0 F3000 X196.579 Y105.504
G1 F600 X203.848 Y112.772 E71.70808
G0 F3000 X203.848 Y112.207
G1 F600 X196.579 Y104.938 E72.05
G0 F3000 X196.579 Y104.373
G1 F600 X203.848 Y111.641 E72.39188
G0 F3000 X203.848 Y111.075
G1 F600 X196.579 Y103.807 E72.73377
G0 F3000 X196.579 Y103.241
G1 F600 X203.848 Y110.51 E73.07568
G0 F3000 X203.848 Y109.944
G1 F600 X196.579 Y102.676 E73.41757
G0 F3000 X196.579 Y102.11
G1 F600 X203.848 Y109.378 E73.75946
G0 F3000 X203.848 Y108.813
G1 F600 X196.579 Y101.544 E74.10137
G0 F3000 X196.579 Y100.979
G1 F600 X203.848 Y108.247 E74.44326
G0 F3000 X203.848 Y107.681
G1 F600 X196.579 Y100.413 E74.78515
G0 F3000 X196.579 Y99.847
G1 F600 X203.848 Y107.116 E75.12706
G0 F3000 X203.848 Y106.55
G1 F600 X196.579 Y99.282 E75.46895
G0 F3000 X196.579 Y98.716
G1 F600 X203.848 Y105.984 E75.81083
G0 F3000 X203.848 Y105.419
G1 F600 X196.579 Y98.15 E76.15275
G0 F3000 X196.579 Y97.584
G1 F600 X203.848 Y104.853 E76.49466
G0 F3000 X203.848 Y104.287
G1 F600 X196.579 Y97.019 E76.83655
G0 F3000 X196.579 Y96.453
G1 F600 X203.848 Y103.721 E77.17843
G0 F3000 X203.848 Y103.156
G1 F600 X196.579 Y95.887 E77.52034
G0 F3000 X196.579 Y95.322
G1 F600 X203.848 Y102.59 E77.86223
G0 F3000 X203.848 Y102.024
G1 F600 X196.579 Y94.756 E78.20412
G0 F3000 X196.579 Y94.19
G1 F600 X203.848 Y101.459 E78.54603
G0 F3000 X203.848 Y100.893
G1 F600 X196.579 Y93.625 E78.88792
G0 F3000 X196.579 Y93.059
G1 F600 X203.848 Y100.327 E79.22981
G0 F3000 X203.848 Y99.762
G1 F600 X196.579 Y92.493 E79.57172
G0 F3000 X196.579 Y91.928
G1 F600 X203.848 Y99.196 E79.91361
G0 F3000 X203.848 Y98.63
G1 F600 X196.579 Y91.362 E80.2555
G0 F3000 X196.579 Y90.796
G1 F600 X203.848 Y98.065 E80.59741
G0 F3000 X203.848 Y97.499
G1 F600 X196.579 Y90.231 E80.93929
G0 F3000 X196.579 Y89.665
G1 F600 X203.848 Y96.933 E81.28118
G0 F3000 X203.848 Y96.368
G1 F600 X196.579 Y89.099 E81.62309
G0 F3000 X196.579 Y88.534
G1 F600 X203.848 Y95.802 E81.96498
G0 F3000 X203.848 Y95.236
G1 F600 X196.579 Y87.968 E82.30687
G0 F3000 X196.579 Y87.402
G1 F600 X203.848 Y94.67 E82.64876
G0 F3000 X203.848 Y94.105
G1 F600 X196.579 Y86.836 E82.99067
G0 F3000 X196.579 Y86.271
G1 F600 X203.848 Y93.539 E83.33256
G0 F3000 X203.848 Y92.973
G1 F600 X196.579 Y85.705 E83.67445
G0 F3000 X196.579 Y85.139
G1 F600 X203.848 Y92.408 E84.01636
G0 F3000 X203.848 Y91.842
G1 F600 X196.653 Y84.647 E84.35479
G0 F3000 X197.219 Y84.647
G1 F600 X203.848 Y91.276 E84.6666
G0 F3000 X203.848 Y90.711
G1 F600 X197.784 Y84.647 E84.95183
G0 F3000 X198.351 Y84.648
G1 F600 X203.848 Y90.145 E85.21039
G0 F3000 X203.848 Y89.579
G1 F600 X198.916 Y84.648 E85.44235
G0 F3000 X199.483 Y84.649
G1 F600 X203.848 Y89.014 E85.64767
G0 F3000 X203.848 Y88.448
G1 F600 X200.048 Y84.649 E85.82639
G0 F3000 X200.615 Y84.649
G1 F600 X203.848 Y87.882 E85.97846
G0 F3000 X203.848 Y87.317
G1 F600 X201.181 Y84.649 E86.10393
G0 F3000 X201.747 Y84.65
G1 F600 X203.848 Y86.751 E86.20275
G0 F3000 X203.848 Y86.185
G1 F600 X202.313 Y84.65 E86.27495
G0 F3000 X202.879 Y84.651
G1 F600 X203.848 Y85.62 E86.32053
G0 F3000 X203.848 Y85.054
G1 F600 X203.445 Y84.651 E86.33949
G1 F3600 E81.33949
G0 F3000 X116.145 Y135.554
G1 F3600 E86.33949
G1 F600 X115.983 Y135.517 E86.34501
G1 X115.946 Y135.355 E86.35054
G1 X115.946 Y84.645 E88.03716
G1 X115.982 Y84.482 E88.04272
G1 X116.145 Y84.446 E88.04827
G1 X120.17 Y84.447 E88.18214
G1 X120.17 Y135.553 E89.88193
G1 X116.145 Y135.554 E90.0158
G0 F3000 X116.149 Y134.816
G1 F600 X116.681 Y135.349 E90.04085
G0 F3000 X117.248 Y135.35
G1 F600 X116.149 Y134.251 E90.09254
G0 F3000 X116.149 Y133.685
G1 F600 X117.814 Y135.35 E90.17086
G0 F3000 X118.38 Y135.351
G1 F600 X116.149 Y133.119 E90.27582
G0 F3000 X116.149 Y132.554
G1 F600 X118.947 Y135.352 E90.40743
G0 F3000 X119.513 Y135.352
G1 F600 X116.149 Y131.988 E90.56567
G0 F3000 X116.149 Y131.422
G1 F600 X119.969 Y135.243 E90.74537
G0 F3000 X119.969 Y134.677
G1 F600 X116.149 Y130.857 E90.92505
G0 F3000 X116.149 Y130.291
G1 F600 X119.969 Y134.111 E91.10473
G0 F3000 X119.969 Y133.546
G1 F600 X116.149 Y129.725 E91.28444
G0 F3000 X116.149 Y129.16
G1 F600 X119.969 Y132.98 E91.46412
G0 F3000 X119.969 Y132.414
G1 F600 X116.149 Y128.594 E91.6438
G0 F3000 X116.149 Y128.028
G1 F600 X119.969 Y131.849 E91.8235
G0 F3000 X119.969 Y131.283
G1 F600 X116.149 Y127.463 E92.00318
G0 F3000 X116.149 Y126.897
G1 F600 X119.969 Y130.717 E92.18287
G0 F3000 X119.969 Y130.152
G1 F600 X116.149 Y126.331 E92.36257
G0 F3000 X116.149 Y125.766
G1 F600 X119.969 Y129.586 E92.54225
G0 F3000 X119.969 Y129.02
G1 F600 X116.149 Y125.2 E92.72193
G0 F3000 X116.149 Y124.634
G1 F600 X119.969 Y128.455 E92.90164
G0 F3000 X119.969 Y127.889
G1 F600 X116.149 Y124.068 E93.08134
G0 F3000 X116.149 Y123.503
G1 F600 X119.969 Y127.323 E93.26102
G0 F3000 X119.969 Y126.758
G1 F600 X116.149 Y122.937 E93.44073
G0 F3000 X116.149 Y122.371
G1 F600 X119.969 Y126.192 E93.62043
G0 F3000 X119.969 Y125.626
G1 F600 X116.149 Y121.806 E93.80011
G0 F3000 X116.149 Y121.24
G1 F600 X119.969 Y125.061 E93.97982
G0 F3000 X119.969 Y124.495
G1 F600 X116.149 Y120.674 E94.15952
G0 F3000 X116.149 Y120.109
G1 F600 X119.969 Y123.929 E94.3392
G0 F3000 X119.969 Y123.363
G1 F600 X116.149 Y119.543 E94.51888
G0 F3000 X116.149 Y118.977
G1 F600 X119.969 Y122.798 E94.69859
G0 F3000 X119.969 Y122.232
G1 F600 X116.149 Y118.412 E94.87827
G0 F3000 X116.149 Y117.846
G1 F600 X119.969 Y121.666 E95.05795
G0 F3000 X119.969 Y121.101
G1 F600 X116.149 Y117.28 E95.23766
G0 F3000 X116.149 Y116.715
G1 F600 X119.969 Y120.535 E95.41734
G0 F3000 X119.969 Y119.969
G1 F600 X116.149 Y116.149 E95.59702
G0 F3000 X116.149 Y115.583
G1 F600 X119.969 Y119.404 E95.77672
G0 F3000 X119.969 Y118.838
G1 F600 X116.149 Y115.017 E95.95643
G0 F3000 X116.149 Y114.452
G1 F600 X119.969 Y118.272 E96.13611
G0 F3000 X119.969 Y117.707
G1 F600 X116.149 Y113.886 E96.31581
G0 F3000 X116.149 Y113.32
G1 F600 X119.969 Y117.141 E96.49552
G0 F3000 X119.969 Y116.575
G1 F600 X116.149 Y112.755 E96.6752
G0 F3000 X116.149 Y112.189
G1 F600 X119.969 Y116.01 E96.8549
G0 F3000 X119.969 Y115.444
G1 F600 X116.149 Y111.623 E97.03461
G0 F3000 X116.149 Y111.058
G1 F600 X119.969 Y114.878 E97.21429
G0 F3000 X119.969 Y114.313
G1 F600 X116.149 Y110.492 E97.39399
G0 F3000 X116.149 Y109.926
G1 F600 X119.969 Y113.747 E97.5737
G0 F3000 X119.969 Y113.181
G1 F600 X116.149 Y109.361 E97.75338
G0 F3000 X116.149 Y108.795
G1 F600 X119.969 Y112.615 E97.93306
G0 F3000 X119.969 Y112.05
G1 F600 X116.149 Y108.229 E98.11277
G0 F3000 X116.149 Y107.664
G1 F600 X119.969 Y111.484 E98.29245
G0 F3000 X119.969 Y110.918
G1 F600 X116.149 Y107.098 E98.47213
G0 F3000 X116.149 Y106.532
G1 F600 X119.969 Y110.353 E98.65183
G0 F3000 X119.969 Y109.787
G1 F600 X116.149 Y105.967 E98.83151
G0 F3000 X116.149 Y105.401
G1 F600 X119.969 Y109.221 E99.01119
G0 F3000 X119.969 Y108.656
G1 F600 X116.149 Y104.835 E99.1909
G0 F3000 X116.149 Y104.269
