;FLAVOR:Marlin
;TIME:3987
;Filament used: 2.67245m
;Layer height: 0.2
;MINX:110.933
;MINY:79.433
;MINZ:0.2
;MAXX:209.067
;MAXY:140.567
;MAXZ:10.4
;TARGET_MACHINE.NAME:Unknown
;Generated with Cura_SteamEngine 5.5.0
M140 S50
M105
M190 S50
M104 S200
M105
M109 S200
M82 ;absolute extrusion mode
G28 ;Home
G1 Z15.0 F6000 ;Move the platform down 15mm
;Prime the extruder
G92 E0
G1 F200 E3
G92 E0
G92 E0
G92 E0
G1 F3600 E-5
;LAYER_COUNT:52
;LAYER:0
M107 P1
G0 F3000 X112.085 Y81.294 Z0.2
;TYPE:SKIRT
G1 F3600 E0
G1 F1200 X112.792 Y80.587 E0.03326
G1 X113.616 Y80.037 E0.06621
G1 X114.501 Y79.671 E0.09806
G1 X115.168 Y79.527 E0.12075
G1 X115.945 Y79.445 E0.14674
G1 X116.698 Y79.433 E0.17179
G1 X203.339 Y79.433 E3.05348
G1 X204.026 Y79.443 E3.07633
G1 X204.627 Y79.493 E3.09639
G1 X205.401 Y79.64 E3.12259
G1 X206.371 Y80.029 E3.15735
G1 X207.202 Y80.582 E3.19055
G1 X207.905 Y81.284 E3.2236
G1 X208.458 Y82.105 E3.25652
G1 X208.827 Y82.994 E3.28854
G1 X208.973 Y83.665 E3.31137
G1 X209.055 Y84.442 E3.33736
G1 X209.067 Y85.198 E3.36251
G1 X209.067 Y134.839 E5.01358
G1 X209.057 Y135.526 E5.03643
G1 X209.007 Y136.127 E5.05649
G1 X208.86 Y136.902 E5.08272
G1 X208.473 Y137.865 E5.11724
G1 X207.919 Y138.7 E5.15057
G1 X207.215 Y139.406 E5.18373
G1 X206.389 Y139.959 E5.21679
G1 X205.509 Y140.325 E5.24849
G1 X204.832 Y140.473 E5.27154
G1 X204.055 Y140.555 E5.29753
G1 X203.302 Y140.567 E5.32258
G1 X116.661 Y140.567 E8.20427
G1 X115.974 Y140.557 E8.22712
G1 X115.373 Y140.507 E8.24718
G1 X114.599 Y140.36 E8.27338
G1 X113.629 Y139.971 E8.30814
G1 X112.798 Y139.418 E8.34134
G1 X112.094 Y138.715 E8.37443
G1 X111.541 Y137.889 E8.40749
G1 X111.173 Y137.005 E8.43934
G1 X111.026 Y136.327 E8.46242
G1 X110.945 Y135.558 E8.48813
G1 X110.933 Y134.802 E8.51328
G1 X110.933 Y85.161 E10.16435
G1 X110.943 Y84.474 E10.1872
G1 X110.993 Y83.873 E10.20726
G1 X111.142 Y83.096 E10.23357
G1 X111.526 Y82.136 E10.26796
G1 X112.085 Y81.294 E10.30158
G1 F3600 E5.30158
;MESH:esplcd1.stl
G0 F3000 X120.55 Y135.5
;TYPE:WALL-INNER
G1 F3600 E10.30158
G1 F1200 X120.55 Y84.5 E11.99784
G1 X120.694 Y84.066 E12.01305
G1 X116.104 Y84.066 E12.16572
G1 X115.801 Y84.131 E12.17602
G1 X115.631 Y84.301 E12.18402
G1 X115.566 Y84.604 E12.19433
G1 X115.566 Y135.396 E13.88368
G1 X115.631 Y135.699 E13.89398
G1 X115.801 Y135.869 E13.90198
G1 X116.104 Y135.934 E13.91229
G1 X120.694 Y135.934 E14.06495
G1 X120.55 Y135.5 E14.08016
G0 F3000 X120.95 Y135.5
G1 F1200 X120.95 Y84.5 E15.77643
G1 X121.069 Y84.139 E15.78907
G1 F919.5 X121.426 Y83.788 E15.8108
G1 X120.833 Y83.666 E15.83708
G1 F1200 X116.062 Y83.666 E15.99576
G1 X115.663 Y83.751 E16.00933
G1 X115.418 Y83.918 E16.01919
G1 X115.251 Y84.163 E16.02905
G1 X115.166 Y84.562 E16.04262
G1 X115.166 Y135.437 E17.73473
G1 X115.251 Y135.837 E17.74833
G1 X115.418 Y136.082 E17.75819
G1 X115.663 Y136.249 E17.76806
G1 X116.062 Y136.334 E17.78162
G1 X120.833 Y136.334 E17.94031
G1 F928.4 X121.55 Y136.217 E17.97154
G1 X121.069 Y135.861 E17.99726
G1 F1200 X120.95 Y135.5 E18.00991
G1 F3600 E13.00991
G0 F3000 X195.035 Y135.698
;TYPE:WALL-OUTER
G1 F3600 E18.00991
G1 F1200 X121.55 Y135.7 E20.45403
G1 X121.389 Y135.621 E20.45999
G1 X121.35 Y135.5 E20.46422
G1 X121.35 Y84.5 E22.16049
G1 X121.389 Y84.379 E22.16472
G1 X121.515 Y84.302 E22.16963
G1 X195 Y84.3 E24.61375
G1 X195.161 Y84.379 E24.61971
G1 X195.2 Y84.5 E24.62394
G1 X195.2 Y135.5 E26.32021
G1 X195.161 Y135.621 E26.32444
G1 X195.035 Y135.698 E26.32935
G0 F3000 X194.835 Y135.698
G1 F3600 E21.32935
G0 F3000 X203.98 Y136.733
G1 F3600 E26.32935
G1 F1200 X204.475 Y136.629 E26.34617
G1 X204.866 Y136.366 E26.36184
G1 X205.129 Y135.975 E26.37752
G1 X205.233 Y135.479 E26.39437
G1 X205.234 Y84.52 E28.08928
G1 X205.129 Y84.025 E28.10611
G1 X204.866 Y83.634 E28.12178
G1 X204.475 Y83.371 E28.13745
G1 X203.98 Y83.266 E28.15428
G1 X116.02 Y83.266 E31.07984
G1 X115.525 Y83.371 E31.09667
G1 X115.134 Y83.634 E31.11235
G1 X114.871 Y84.025 E31.12802
G1 X114.766 Y84.52 E31.14485
G1 X114.766 Y135.479 E32.83975
G1 X114.871 Y135.975 E32.85661
G1 X115.134 Y136.366 E32.87229
G1 X115.525 Y136.629 E32.88796
G1 X116.02 Y136.734 E32.90479
G1 X203.98 Y136.733 E35.83035
G0 F3000 X204.176 Y136.692
G1 F3600 E30.83035
G0 F3000 X195.6 Y84.5
;TYPE:WALL-INNER
G1 F3600 E35.83035
G1 F1200 X195.6 Y135.5 E37.52662
G1 X195.481 Y135.861 E37.53926
G1 F919.5 X195.124 Y136.212 E37.56099
G1 X195.717 Y136.334 E37.58727
G1 F1200 X203.938 Y136.333 E37.8607
G1 X204.337 Y136.249 E37.87426
G1 X204.582 Y136.082 E37.88412
G1 X204.749 Y135.837 E37.89399
G1 X204.833 Y135.437 E37.90758
G1 X204.834 Y84.562 E39.59969
G1 X204.749 Y84.163 E39.61326
G1 X204.582 Y83.918 E39.62312
G1 X204.337 Y83.751 E39.63298
G1 X203.938 Y83.666 E39.64655
G1 X195.717 Y83.666 E39.91998
G1 F928.4 X195 Y83.783 E39.95121
G1 X195.481 Y84.139 E39.97694
G1 F1200 X195.6 Y84.5 E39.98958
G1 F3600 E34.98958
G0 F3000 X196 Y135.5
G1 F3600 E39.98958
G1 F1200 X195.856 Y135.934 E40.00479
G1 X203.896 Y135.933 E40.2722
G1 X204.199 Y135.869 E40.2825
G1 X204.369 Y135.699 E40.2905
G1 X204.433 Y135.396 E40.3008
G1 X204.434 Y84.604 E41.99015
G1 X204.369 Y84.301 E42.00045
G1 X204.199 Y84.131 E42.00845
G1 X203.896 Y84.066 E42.01876
G1 X195.856 Y84.066 E42.28617
G1 X196 Y84.5 E42.30138
G1 X196 Y135.5 E43.99764
G1 F3600 E38.99764
G0 F3000 X195.124 Y136.212
G1 F3600 E43.99764
G1 F747.7 X176.73 Y136.213 E44.97956
G1 F750 X158.336 Y136.214 E45.95842
G1 F753.5 X139.942 Y136.215 E46.93269
G1 F755.9 X121.548 Y136.217 E47.9039
G1 F3600 E42.9039
G0 F3000 X121.426 Y83.788
G1 F3600 E47.9039
G1 F747.7 X139.82 Y83.787 E48.88582
G1 F750 X158.214 Y83.786 E49.86468
G1 F753.5 X176.608 Y83.785 E50.83895
G1 F755.9 X195.002 Y83.783 E51.81016
G1 F3600 E46.81016
G0 F3000 X203.856 Y135.553
;TYPE:SKIN
G1 F3600 E51.81016
G1 F1200 X196.38 Y135.553 E52.05882
G1 X196.38 Y84.447 E53.75861
G1 X203.855 Y84.447 E54.00723
G1 X204.018 Y84.482 E54.01277
G1 X204.053 Y84.645 E54.01832
G1 X204.053 Y135.356 E55.70497
G1 X204.017 Y135.517 E55.71046
G1 X203.856 Y135.553 E55.71595
G1 F3600 E50.71595
G0 F3000 X196.579 Y134.92
G1 F3600 E55.71595
G1 F1200 X197.011 Y135.352 E55.73627
G0 F3000 X197.577 Y135.352
G1 F1200 X196.579 Y134.354 E55.78321
G0 F3000 X196.579 Y133.788
G1 F1200 X198.142 Y135.351 E55.85673
G0 F3000 X198.708 Y135.351
G1 F1200 X196.579 Y133.223 E55.95685
G0 F3000 X196.579 Y132.657
G1 F1200 X199.274 Y135.351 E56.08359
G0 F3000 X199.838 Y135.35
G1 F1200 X196.579 Y132.091 E56.23688
G0 F3000 X196.579 Y131.526
G1 F1200 X200.404 Y135.35 E56.41677
G0 F3000 X200.969 Y135.35
G1 F1200 X196.579 Y130.96 E56.62327
G0 F3000 X196.579 Y130.394
G1 F1200 X201.535 Y135.35 E56.85638
G0 F3000 X202.101 Y135.35
G1 F1200 X196.579 Y129.829 E57.11609
G0 F3000 X196.579 Y129.263
G1 F1200 X202.665 Y135.349 E57.40236
G0 F3000 X203.231 Y135.349
G1 F1200 X196.579 Y128.697 E57.71525
G0 F3000 X196.579 Y128.131
G1 F1200 X203.797 Y135.349 E58.05476
G0 F3000 X203.848 Y134.834
G1 F1200 X196.579 Y127.566 E58.39665
G0 F3000 X196.579 Y127
G1 F1200 X203.848 Y134.268 E58.73854
G0 F3000 X203.848 Y133.703
G1 F1200 X196.579 Y126.434 E59.08045
G0 F3000 X196.579 Y125.869
G1 F1200 X203.848 Y133.137 E59.42234
G0 F3000 X203.848 Y132.571
G1 F1200 X196.579 Y125.303 E59.76423
G0 F3000 X196.579 Y124.737
G1 F1200 X203.848 Y132.006 E60.10614
G0 F3000 X203.848 Y131.44
G1 F1200 X196.579 Y124.172 E60.44803
G0 F3000 X196.579 Y123.606
G1 F1200 X203.848 Y130.874 E60.78991
G0 F3000 X203.848 Y130.309
G1 F1200 X196.579 Y123.04 E61.13183
G0 F3000 X196.579 Y122.475
G1 F1200 X203.848 Y129.743 E61.47371
G0 F3000 X203.848 Y129.177
G1 F1200 X196.579 Y121.909 E61.8156
G0 F3000 X196.579 Y121.343
G1 F1200 X203.848 Y128.612 E62.15751
G0 F3000 X203.848 Y128.046
G1 F1200 X196.579 Y120.778 E62.4994
G0 F3000 X196.579 Y120.212
G1 F1200 X203.848 Y127.48 E62.84129
G0 F3000 X203.848 Y126.915
G1 F1200 X196.579 Y119.646 E63.1832
G0 F3000 X196.579 Y119.081
G1 F1200 X203.848 Y126.349 E63.52509
G0 F3000 X203.848 Y125.783
G1 F1200 X196.579 Y118.515 E63.86698
G0 F3000 X196.579 Y117.949
G1 F1200 X203.848 Y125.218 E64.20889
G0 F3000 X203.848 Y124.652
G1 F1200 X196.579 Y117.383 E64.5508
G0 F3000 X196.579 Y116.818
G1 F1200 X203.848 Y124.086 E64.89269
G0 F3000 X203.848 Y123.52
G1 F1200 X196.579 Y116.252 E65.23458
G0 F3000 X196.579 Y115.686
G1 F1200 X203.848 Y122.955 E65.57649
G0 F3000 X203.848 Y122.389
G1 F1200 X196.579 Y115.121 E65.91837
G0 F3000 X196.579 Y114.555
G1 F1200 X203.848 Y121.823 E66.26026
G0 F3000 X203.848 Y121.258
G1 F1200 X196.579 Y113.989 E66.60217
G0 F3000 X196.579 Y113.424
G1 F1200 X203.848 Y120.692 E66.94406
G0 F3000 X203.848 Y120.126
G1 F1200 X196.579 Y112.858 E67.28595
G0 F3000 X196.579 Y112.292
G1 F1200 X203.848 Y119.561 E67.62786
G0 F3000 X203.848 Y118.995
G1 F1200 X196.579 Y111.727 E67.96975
G0 F3000 X196.579 Y111.161
G1 F1200 X203.848 Y118.429 E68.31164
G0 F3000 X203.848 Y117.864
G1 F1200 X196.579 Y110.595 E68.65355
G0 F3000 X196.579 Y110.03
G1 F1200 X203.848 Y117.298 E68.99544
G0 F3000 X203.848 Y116.732
G1 F1200 X196.579 Y109.464 E69.33732
G0 F3000 X196.579 Y108.898
G1 F1200 X203.848 Y116.167 E69.67924
G0 F3000 X203.848 Y115.601
G1 F1200 X196.579 Y108.333 E70.02112
G0 F3000 X196.579 Y107.767
G1 F1200 X203.848 Y115.035 E70.36301
G0 F3000 X203.848 Y114.469
G1 F1200 X196.579 Y107.201 E70.7049
G0 F3000 X196.579 Y106.635
G1 F1200 X203.848 Y113.904 E71.04681
G0 F3000 X203.848 Y113.338
G1 F1200 X196.579 Y106.07 E71.3887
G0 F3000 X196.579 Y105.504
G1 F1200 X203.848 Y112.772 E71.73059
G0 F3000 X203.848 Y112.207
G1 F1200 X196.579 Y104.938 E72.0725
G0 F3000 X196.579 Y104.373
G1 F1200 X203.848 Y111.641 E72.41439
G0 F3000 X203.848 Y111.075
G1 F1200 X196.579 Y103.807 E72.75628
G0 F3000 X196.579 Y103.241
G1 F1200 X203.848 Y110.51 E73.09819
G0 F3000 X203.848 Y109.944
G1 F1200 X196.579 Y102.676 E73.44007
G0 F3000 X196.579 Y102.11
G1 F1200 X203.848 Y109.378 E73.78196
G0 F3000 X203.848 Y108.813
G1 F1200 X196.579 Y101.544 E74.12387
G0 F3000 X196.579 Y100.979
G1 F1200 X203.848 Y108.247 E74.46576
G0 F3000 X203.848 Y107.681
G1 F1200 X196.579 Y100.413 E74.80765
G0 F3000 X196.579 Y99.847
G1 F1200 X203.848 Y107.116 E75.14956
G0 F3000 X203.848 Y106.55
G1 F1200 X196.579 Y99.282 E75.49145
G0 F3000 X196.579 Y98.716
G1 F1200 X203.848 Y105.984 E75.83334
G0 F3000 X203.848 Y105.419
G1 F1200 X196.579 Y98.15 E76.17525
G0 F3000 X196.579 Y97.584
G1 F1200 X203.848 Y104.853 E76.51716
G0 F3000 X203.848 Y104.287
G1 F1200 X196.579 Y97.019 E76.85905
G0 F3000 X196.579 Y96.453
G1 F1200 X203.848 Y103.721 E77.20094
G0 F3000 X203.848 Y103.156
G1 F1200 X196.579 Y95.887 E77.54285
G0 F3000 X196.579 Y95.322
G1 F1200 X203.848 Y102.59 E77.88474
G0 F3000 X203.848 Y102.024
G1 F1200 X196.579 Y94.756 E78.22662
G0 F3000 X196.579 Y94.19
G1 F1200 X203.848 Y101.459 E78.56853
G0 F3000 X203.848 Y100.893
G1 F1200 X196.579 Y93.625 E78.91042
G0 F3000 X196.579 Y93.059
G1 F1200 X203.848 Y100.327 E79.25231
G0 F3000 X203.848 Y99.762
G1 F1200 X196.579 Y92.493 E79.59422
G0 F3000 X196.579 Y91.928
G1 F1200 X203.848 Y99.196 E79.93611
G0 F3000 X203.848 Y98.63
G1 F1200 X196.579 Y91.362 E80.278
G0 F3000 X196.579 Y90.796
G1 F1200 X203.848 Y98.065 E80.61991
G0 F3000 X203.848 Y97.499
G1 F1200 X196.579 Y90.231 E80.9618
G0 F3000 X196.579 Y89.665
G1 F1200 X203.848 Y96.933 E81.30369
G0 F3000 X203.848 Y96.368
G1 F1200 X196.579 Y89.099 E81.6456
G0 F3000 X196.579 Y88.534
G1 F1200 X203.848 Y95.802 E81.98749
G0 F3000 X203.848 Y95.236
G1 F1200 X196.579 Y87.968 E82.32937
G0 F3000 X196.579 Y87.402
G1 F1200 X203.848 Y94.67 E82.67126
G0 F3000 X203.848 Y94.105
G1 F1200 X196.579 Y86.836 E83.01317
G0 F3000 X196.579 Y86.271
G1 F1200 X203.848 Y93.539 E83.35506
G0 F3000 X203.848 Y92.973
G1 F1200 X196.579 Y85.705 E83.69695
G0 F3000 X196.579 Y85.139
G1 F1200 X203.848 Y92.408 E84.03886
G0 F3000 X203.848 Y91.842
G1 F1200 X196.653 Y84.647 E84.37729
G0 F3000 X197.219 Y84.647
G1 F1200 X203.848 Y91.276 E84.6891
G0 F3000 X203.848 Y90.711
G1 F1200 X197.784 Y84.647 E84.97433
G0 F3000 X198.351 Y84.648
G1 F1200 X203.848 Y90.145 E85.23289
G0 F3000 X203.848 Y89.579
G1 F1200 X198.916 Y84.648 E85.46486
G0 F3000 X199.483 Y84.649
G1 F1200 X203.848 Y89.014 E85.67017
G0 F3000 X203.848 Y88.448
G1 F1200 X200.048 Y84.649 E85.84889
G0 F3000 X200.615 Y84.649
G1 F1200 X203.848 Y87.882 E86.00096
G0 F3000 X203.848 Y87.317
G1 F1200 X201.181 Y84.649 E86.12643
G0 F3000 X201.747 Y84.65
G1 F1200 X203.848 Y86.751 E86.22525
G0 F3000 X203.848 Y86.185
G1 F1200 X202.313 Y84.65 E86.29746
G0 F3000 X202.879 Y84.651
G1 F1200 X203.848 Y85.62 E86.34303
G0 F3000 X203.848 Y85.054
G1 F1200 X203.445 Y84.651 E86.36199
G1 F3600 E81.36199
G0 F3000 X116.145 Y135.554
G1 F3600 E86.36199
G1 F1200 X115.983 Y135.517 E86.36752
G1 X115.946 Y135.355 E86.37304
G1 X115.946 Y84.645 E88.05967
G1 X115.982 Y84.482 E88.06522
G1 X116.145 Y84.446 E88.07077
G1 X120.17 Y84.447 E88.20464
G1 X120.17 Y135.553 E89.90443
G1 X116.145 Y135.554 E90.03831
G0 F3000 X116.149 Y134.816
G1 F1200 X116.681 Y135.349 E90.06335
G0 F3000 X117.248 Y135.35
G1 F1200 X116.149 Y134.251 E90.11505
G0 F3000 X116.149 Y133.685
G1 F1200 X117.814 Y135.35 E90.19336
G0 F3000 X118.38 Y135.351
G1 F1200 X116.149 Y133.119 E90.29833
G0 F3000 X116.149 Y132.554
G1 F1200 X118.947 Y135.352 E90.42994
G0 F3000 X119.513 Y135.352
G1 F1200 X116.149 Y131.988 E90.58817
G0 F3000 X116.149 Y131.422
G1 F1200 X119.969 Y135.243 E90.76787
G0 F3000 X119.969 Y134.677
G1 F1200 X116.149 Y130.857 E90.94755
G0 F3000 X116.149 Y130.291
G1 F1200 X119.969 Y134.111 E91.12723
G0 F3000 X119.969 Y133.546
G1 F1200 X116.149 Y129.725 E91.30694
G0 F3000 X116.149 Y129.16
G1 F1200 X119.969 Y132.98 E91.48662
G0 F3000 X119.969 Y132.414
G1 F1200 X116.149 Y128.594 E91.6663
G0 F3000 X116.149 Y128.028
G1 F1200 X119.969 Y131.849 E91.84601
G0 F3000 X119.969 Y131.283
G1 F1200 X116.149 Y127.463 E92.02569
G0 F3000 X116.149 Y126.897
G1 F1200 X119.969 Y130.717 E92.20537
G0 F3000 X119.969 Y130.152
G1 F1200 X116.149 Y126.331 E92.38507
G0 F3000 X116.149 Y125.766
G1 F1200 X119.969 Y129.586 E92.56475
G0 F3000 X119.969 Y129.02
G1 F1200 X116.149 Y125.2 E92.74444
G0 F3000 X116.149 Y124.634
G1 F1200 X119.969 Y128.455 E92.92414
G0 F3000 X119.969 Y127.889
G1 F1200 X116.149 Y124.068 E93.10384
G0 F3000 X116.149 Y123.503
G1 F1200 X119.969 Y127.323 E93.28353
G0 F3000 X119.969 Y126.758
G1 F1200 X116.149 Y122.937 E93.46323
G0 F3000 X116.149 Y122.371
G1 F1200 X119.969 Y126.192 E93.64293
G0 F3000 X119.969 Y125.626
G1 F1200 X116.149 Y121.806 E93.82262
G0 F3000 X116.149 Y121.24
G1 F1200 X119.969 Y125.061 E94.00232
G0 F3000 X119.969 Y124.495
G1 F1200 X116.149 Y120.674 E94.18203
G0 F3000 X116.149 Y120.109
G1 F1200 X119.969 Y123.929 E94.36171
G0 F3000 X119.969 Y123.363
G1 F1200 X116.149 Y119.543 E94.54139
G0 F3000 X116.149 Y118.977
G1 F1200 X119.969 Y122.798 E94.72109
G0 F3000 X119.969 Y122.232
G1 F1200 X116.149 Y118.412 E94.90077
G0 F3000 X116.149 Y117.846
G1 F1200 X119.969 Y121.666 E95.08045
G0 F3000 X119.969 Y121.101
G1 F1200 X116.149 Y117.28 E95.26016
G0 F3000 X116.149 Y116.715
G1 F1200 X119.969 Y120.535 E95.43984
G0 F3000 X119.969 Y119.969
G1 F1200 X116.149 Y116.149 E95.61952
G0 F3000 X116.149 Y115.583
G1 F1200 X119.969 Y119.404 E95.79923
G0 F3000 X119.969 Y118.838
G1 F1200 X116.149 Y115.017 E95.97893
G0 F3000 X116.149 Y114.452
G1 F1200 X119.969 Y118.272 E96.15861
G0 F3000 X119.969 Y117.707
G1 F1200 X116.149 Y113.886 E96.33832
G0 F3000 X116.149 Y113.32
G1 F1200 X119.969 Y117.141 E96.51802
G0 F3000 X119.969 Y116.575
G1 F1200 X116.149 Y112.755 E96.6977
G0 F3000 X116.149 Y112.189
G1 F1200 X119.969 Y116.01 E96.87741
G0 F3000 X119.969 Y115.444
G1 F1200 X116.149 Y111.623 E97.05711
G0 F3000 X116.149 Y111.058
G1 F1200 X119.969 Y114.878 E97.23679
G0 F3000 X119.969 Y114.313
G1 F1200 X116.149 Y110.492 E97.4165
G0 F3000 X116.149 Y109.926
G1 F1200 X119.969 Y113.747 E97.5962
G0 F3000 X119.969 Y113.181
G1 F1200 X116.149 Y109.361 E97.77588
G0 F3000 X116.149 Y108.795
G1 F1200 X119.969 Y112.615 E97.95556
G0 F3000 X119.969 Y112.05
G1 F1200 X116.149 Y108.229 E98.13527
G0 F3000 X116.149 Y107.664
G1 F1200 X119.969 Y111.484 E98.31495
G0 F3000 X119.969 Y110.918
G1 F1200 X116.149 Y107.098 E98.49463
G0 F3000 X116.149 Y106.532
G1 F1200 X119.969 Y110.353 E98.67433
G0 F3000 X119.969 Y109.787
